public/new/svg5.svg

<svg fill="none" height="28" viewBox="0 0 29 28" width="29" xmlns="http://www.w3.org/2000/svg"><path d="m18.4529 13-2.647 2.646.707.708 3.854-3.854-3.854-3.854-.707.708 2.647 2.646h-5.793c-1.4587 0-2.85763.5795-3.88908 1.6109-1.03145 1.0315-1.61091 2.4304-1.61091 3.8891v1.5h1v-1.5c0-1.1935.47411-2.3381 1.31802-3.182.84387-.8439 1.98847-1.318 3.18197-1.318z" fill="#77787e"/></svg>

<svg width="29" height="28" viewBox="0 0 29 28" fill="none" xmlns="http://www.w3.org/2000/svg">
<path d="M18.4529 13L15.8059 15.646L16.5129 16.354L20.3669 12.5L16.5129 8.646L15.8059 9.354L18.4529 12H12.6599C11.2012 12 9.80227 12.5795 8.77082 13.6109C7.73937 14.6424 7.15991 16.0413 7.15991 17.5V19H8.15991V17.5C8.15991 16.3065 8.63402 15.1619 9.47793 14.318C10.3218 13.4741 11.4664 13 12.6599 13H18.4529Z" fill="#77787E"/>
</svg>
